icons/svg/black-mesa.svg

﻿<?xml version="1.0" encoding="utf-8"?>
<!DOCTYPE svg PUBLIC "-//W3C//DTD SVG 1.1//EN" "http://www.w3.org/Graphics/SVG/1.1/DTD/svg11.dtd">
<svg xmlns="http://www.w3.org/2000/svg" xmlns:xlink="http://www.w3.org/1999/xlink" version="1.1" baseProfile="full" width="24" height="24" viewBox="0 0 24.00 24.00" enable-background="new 0 0 24.00 24.00" xml:space="preserve">
	<path fill="#000000" fill-opacity="1" stroke-linejoin="round" d="M 12,2C 17.5228,2 22,6.47716 22,12C 22,17.5228 17.5228,22 12,22C 6.47715,22 2,17.5228 2,12C 2,6.47716 6.47715,2 12,2 Z M 12,4.00001C 7.58172,4.00001 4,7.58173 4,12C 4,14.3894 5.04751,16.5341 6.70835,18L 9,18L 9,12L 17,12L 19.1525,15.5875C 19.6947,14.5085 20,13.2899 20,12C 20,7.58173 16.4183,4.00001 12,4.00001 Z "/>
</svg>

<svg xmlns="http://www.w3.org/2000/svg" version="1.1" baseProfile="full" width="24" height="24" viewBox="0 0 24.00 24.00" xml:space="preserve"><path fill="#000" fill-opacity="1" stroke-linejoin="round" d="M12 2c5.523 0 10 4.477 10 10s-4.477 10-10 10S2 17.523 2 12 6.477 2 12 2zm0 2c-4.418 0-8 3.582-8 8 0 2.39 1.048 4.534 2.708 6H9v-6h8l2.152 3.588C19.695 14.508 20 13.29 20 12c0-4.418-3.582-8-8-8z"/></svg>
